<?xml version="1.0" encoding="UTF-8"?>
<map version="1.10" tiledversion="1.10.1" orientation="orthogonal" renderorder="right-down" width="30" height="30" tilewidth="32" tileheight="32" infinite="0" nextlayerid="2" nextobjectid="1">
 <editorsettings>
  <export target="world-map.json" format="json"/>
 </editorsettings>
 <tileset firstgid="1" source="world.json"/>
 <layer id="1" name="Tile Layer 1" width="30" height="30">
  <data encoding="csv">
28,29,29,29,29,29,29,29,29,29,29,29,29,29,29,29,29,29,29,29,29,29,29,29,30,41,42,42,42,42,
38,39,39,39,39,39,39,39,39,39,39,39,39,39,39,39,39,39,39,39,49,49,39,39,40,41,42,42,42,42,
38,39,39,39,39,39,39,39,39,39,39,39,39,39,39,39,39,39,39,40,44,44,38,39,40,41,42,42,42,42,
38,39,39,39,39,39,39,39,39,39,39,39,39,39,39,39,39,39,39,40,44,44,38,39,40,41,42,42,42,42,
38,39,39,39,39,39,39,39,39,39,39,39,39,39,39,39,39,39,39,39,29,29,39,39,40,41,42,42,42,42,
38,39,39,39,49,49,49,49,49,49,49,49,49,49,39,39,39,39,39,39,39,39,39,39,40,41,42,42,42,42,
38,39,39,40,41,42,42,42,42,42,42,42,42,43,48,49,49,49,49,49,39,39,39,39,40,41,42,42,42,42,
38,39,39,40,41,44,44,44,44,44,44,44,44,43,10,10,10,10,10,44,38,39,39,39,40,41,42,42,42,42,
38,39,39,40,41,44,44,44,44,44,44,44,44,43,20,20,8,20,20,44,38,39,39,39,40,41,42,42,42,42,
38,39,39,40,41,44,44,44,44,44,44,44,44,43,9,19,18,19,9,44,38,39,39,39,40,41,42,42,42,42,
38,39,39,40,41,44,44,44,44,44,44,44,44,44,44,39,39,39,44,44,38,39,39,39,40,41,42,42,42,42,
38,39,39,40,41,44,44,44,44,44,44,44,44,43,28,39,39,39,29,29,39,39,39,39,40,41,42,42,42,42,
38,39,39,40,41,44,44,44,44,44,44,44,44,43,38,39,39,39,39,39,39,39,39,39,40,41,42,42,42,42,
38,39,39,40,41,42,42,42,42,42,42,42,42,43,38,39,39,39,39,49,49,49,49,49,50,41,42,42,42,42,
38,39,39,39,29,29,29,29,29,29,29,29,30,43,38,39,39,39,40,44,44,44,44,44,44,44,44,44,41,42,
38,39,39,39,39,39,39,39,39,39,39,39,40,43,38,39,39,39,40,44,44,44,44,44,44,44,44,44,41,42,
38,39,39,39,39,39,39,39,39,39,39,39,40,43,38,39,39,39,40,44,10,10,10,10,10,10,44,44,41,42,
38,39,39,39,39,39,39,39,39,39,39,39,40,43,38,39,39,39,40,44,20,8,20,20,20,20,44,44,41,42,
48,49,49,49,49,49,49,49,39,39,39,39,40,43,38,39,39,39,40,44,9,18,19,19,19,9,44,44,41,42,
44,44,44,44,44,44,44,44,38,39,39,39,40,43,38,39,39,39,40,44,38,39,40,44,44,44,44,44,41,42,
44,44,44,44,44,44,44,44,38,39,39,39,40,43,38,39,39,39,40,44,38,39,40,44,44,44,44,44,41,42,
44,44,44,44,44,44,44,44,38,39,39,39,40,43,38,39,39,39,40,44,38,39,40,41,43,44,44,44,41,42,
44,44,44,44,44,44,44,44,38,39,39,39,40,43,38,39,39,39,40,44,38,39,40,41,43,44,44,44,41,42,
44,44,44,44,44,44,44,44,38,39,39,39,40,43,38,39,39,39,40,44,38,39,40,41,43,44,44,44,44,41,
44,44,44,44,44,44,44,44,38,39,39,39,40,43,38,39,39,39,40,44,38,39,40,41,42,43,44,44,44,44,
29,29,29,29,29,29,29,29,39,39,39,39,40,43,38,39,39,39,40,44,38,39,40,41,42,42,43,44,44,44,
39,39,39,39,39,39,39,39,39,39,39,39,40,43,38,39,39,39,40,44,38,39,40,41,42,42,42,43,44,44,
39,39,39,39,39,39,39,39,39,39,39,39,40,43,38,39,39,39,39,29,39,39,40,41,42,42,42,42,43,44,
39,39,39,39,39,39,39,39,39,39,39,39,40,43,38,39,39,39,39,39,39,39,40,41,42,42,42,42,42,42,
49,49,49,49,49,49,49,49,49,49,49,49,50,43,48,49,49,49,49,49,49,49,50,41,42,42,42,42,42,42
</data>
 </layer>
</map>
